img/icon-futures.svg

<?xml version="1.0" encoding="UTF-8"?>
<svg width="80px" height="80px" viewBox="0 0 80 80" version="1.1" xmlns="http://www.w3.org/2000/svg" xmlns:xlink="http://www.w3.org/1999/xlink">
    <title>Group 5</title>
    <defs>
        <rect id="path-1" x="0" y="0" width="80" height="80"></rect>
    </defs>
    <g id="Final" stroke="none" stroke-width="1" fill="none" fill-rule="evenodd">
        <g id="Product-design---desktop" transform="translate(-156.000000, -1406.000000)">
            <g id="Group-5" transform="translate(156.000000, 1406.000000)">
                <mask id="mask-2" fill="white">
                    <use xlink:href="#path-1"></use>
                </mask>
                <g id="Mask"></g>
                <g mask="url(#mask-2)" fill="#00BECB">
                    <g transform="translate(0.000000, 1.250000)">
                        <path d="M35,66.5954774 L45,66.5954774 L45,31.9346734 L35,31.9346734 L35,66.5954774 Z M46.9230769,28.040201 L41.9230769,28.040201 L41.9230769,15.9673367 C41.9230769,14.8920729 41.0623077,14.0201005 40,14.0201005 C38.9376923,14.0201005 38.0769231,14.8920729 38.0769231,15.9673367 L38.0769231,28.040201 L33.0769231,28.040201 C32.0146154,28.040201 31.1538462,28.9117839 31.1538462,29.9874372 L31.1538462,68.5427136 C31.1538462,69.6183668 32.0146154,70.4899497 33.0769231,70.4899497 L38.0769231,70.4899497 L38.0769231,75.5527638 C38.0769231,76.6284171 38.9376923,77.5 40,77.5 C41.0623077,77.5 41.9230769,76.6284171 41.9230769,75.5527638 L41.9230769,70.4899497 L46.9230769,70.4899497 C47.9853846,70.4899497 48.8461538,69.6183668 48.8461538,68.5427136 L48.8461538,29.9874372 C48.8461538,28.9117839 47.9853846,28.040201 46.9230769,28.040201 L46.9230769,28.040201 Z" id="Fill-1"></path>
                        <path d="M66.1538462,52.5753769 L76.1538462,52.5753769 L76.1538462,14.4095477 L66.1538462,14.4095477 L66.1538462,52.5753769 Z M78.0769231,10.5150754 L73.0769231,10.5150754 L73.0769231,1.94723618 C73.0769231,0.871972362 72.2161538,0 71.1538462,0 C70.0915385,0 69.2307692,0.871972362 69.2307692,1.94723618 L69.2307692,10.5150754 L64.2307692,10.5150754 C63.1684615,10.5150754 62.3076923,11.3870477 62.3076923,12.4623116 L62.3076923,54.5226131 C62.3076923,55.5982663 63.1684615,56.4698492 64.2307692,56.4698492 L69.2307692,56.4698492 L69.2307692,68.5427136 C69.2307692,69.6183668 70.0915385,70.4899497 71.1538462,70.4899497 C72.2161538,70.4899497 73.0769231,69.6183668 73.0769231,68.5427136 L73.0769231,56.4698492 L78.0769231,56.4698492 C79.1392308,56.4698492 80,55.5982663 80,54.5226131 L80,12.4623116 C80,11.3870477 79.1392308,10.5150754 78.0769231,10.5150754 L78.0769231,10.5150754 Z" id="Fill-3"></path>
                        <path d="M3.84615385,45.5653266 L13.8461538,45.5653266 L13.8461538,17.9145729 L3.84615385,17.9145729 L3.84615385,45.5653266 Z M15.7692308,14.0201005 L10.7692308,14.0201005 L10.7692308,8.95728643 C10.7692308,7.88202261 9.90846154,7.01005025 8.84615385,7.01005025 C7.78384615,7.01005025 6.92307692,7.88202261 6.92307692,8.95728643 L6.92307692,14.0201005 L1.92307692,14.0201005 C0.860769231,14.0201005 0,14.8920729 0,15.9673367 L0,47.5125628 C0,48.5882161 0.860769231,49.459799 1.92307692,49.459799 L6.92307692,49.459799 L6.92307692,58.0276382 C6.92307692,59.1032915 7.78384615,59.9748744 8.84615385,59.9748744 C9.90846154,59.9748744 10.7692308,59.1032915 10.7692308,58.0276382 L10.7692308,49.459799 L15.7692308,49.459799 C16.8315385,49.459799 17.6923077,48.5882161 17.6923077,47.5125628 L17.6923077,15.9673367 C17.6923077,14.8920729 16.8315385,14.0201005 15.7692308,14.0201005 L15.7692308,14.0201005 Z" id="Fill-4"></path>
                    </g>
                </g>
            </g>
        </g>
    </g>
</svg>

<?xml version="1.0" encoding="utf-8"?>
<!-- Generator: Adobe Illustrator 25.2.0, SVG Export Plug-In . SVG Version: 6.00 Build 0)  -->
<svg version="1.1" id="Layer_1" xmlns="http://www.w3.org/2000/svg" xmlns:xlink="http://www.w3.org/1999/xlink" x="0px" y="0px"
	 viewBox="0 0 80 80" style="enable-background:new 0 0 80 80;" xml:space="preserve">
<style type="text/css">
	.st0{filter:url(#Adobe_OpacityMaskFilter);}
	.st1{fill-rule:evenodd;clip-rule:evenodd;fill:#FFFFFF;}
	.st2{mask:url(#mask-2_1_);}
	.st3{fill-rule:evenodd;clip-rule:evenodd;fill:#0065E6;}
</style>
<g id="Final">
	<g id="Product-design---desktop" transform="translate(-156.000000, -1406.000000)">
		<g id="Group-5" transform="translate(156.000000, 1406.000000)">
			<g id="Mask">
			</g>
			<defs>
				<filter id="Adobe_OpacityMaskFilter" filterUnits="userSpaceOnUse" x="0" y="1.2" width="80" height="77.5">
					<feColorMatrix  type="matrix" values="1 0 0 0 0  0 1 0 0 0  0 0 1 0 0  0 0 0 1 0"/>
				</filter>
			</defs>
			<mask maskUnits="userSpaceOnUse" x="0" y="1.2" width="80" height="77.5" id="mask-2_1_">
				<g class="st0">
					<rect id="path-1_1_" class="st1" width="80" height="80"/>
				</g>
			</mask>
			<g class="st2">
				<g transform="translate(0.000000, 1.250000)">
					<path id="Fill-1" class="st3" d="M35,66.6h10V31.9H35V66.6z M46.9,28h-5V16c0-1.1-0.9-1.9-1.9-1.9s-1.9,0.9-1.9,1.9V28h-5
						c-1.1,0-1.9,0.9-1.9,1.9v38.6c0,1.1,0.9,1.9,1.9,1.9h5v5.1c0,1.1,0.9,1.9,1.9,1.9s1.9-0.9,1.9-1.9v-5.1h5
						c1.1,0,1.9-0.9,1.9-1.9V30C48.8,28.9,48,28,46.9,28L46.9,28z"/>
					<path id="Fill-3" class="st3" d="M66.2,52.6h10V14.4h-10V52.6z M78.1,10.5h-5V1.9c0-1.1-0.9-1.9-1.9-1.9s-1.9,0.9-1.9,1.9v8.6
						h-5c-1.1,0-1.9,0.9-1.9,1.9v42.1c0,1.1,0.9,1.9,1.9,1.9h5v12.1c0,1.1,0.9,1.9,1.9,1.9s1.9-0.9,1.9-1.9V56.5h5
						c1.1,0,1.9-0.9,1.9-1.9V12.5C80,11.4,79.1,10.5,78.1,10.5L78.1,10.5z"/>
					<path id="Fill-4" class="st3" d="M3.8,45.6h10V17.9h-10V45.6z M15.8,14h-5V9C10.8,7.9,9.9,7,8.8,7S6.9,7.9,6.9,9V14h-5
						C0.9,14,0,14.9,0,16v31.5c0,1.1,0.9,1.9,1.9,1.9h5V58c0,1.1,0.9,1.9,1.9,1.9s1.9-0.9,1.9-1.9v-8.6h5c1.1,0,1.9-0.9,1.9-1.9V16
						C17.7,14.9,16.8,14,15.8,14L15.8,14z"/>
				</g>
			</g>
		</g>
	</g>
</g>
</svg>
